X:178
T:Goldbrickin'
C:by Ronnie McCoury
N:transcribed by Steven Block 4/2012
R:bluegrass
L:1/8
Q:1/4=260
M:4/4
K:C
z6 EG | {G}A2 AA Ac ec | "G"dB BB Bz cd | "F"cA AA Az Bc | "G"BG GG Gz EG | {G}"Am"A2 AA Ac ec | 
"G"dB BB Bz Bd |1 c"F"B Ac "C"BA GE | "D"[dA]z [dA][dA] [dA]z EG :|2 cB Ac "G"BA Gz | 
"Am"[A2A2] [AA][AA] [A2A2] z2 |: "Am"[ae]z [ae][ae] [ae][ae] [ae][ae] | [a2e2] eg ab ag | 
[ae]z [ae][ae] [ae][ae] [ae][ae] | [a2e2] e^f ga ge | "C"[gc]z [gc][gc] [gc][gc] [gc][gc] | 
[g2c2] AB cd cB | "Am"[AA]z [AA][AA] [AA][AA] [AA][AA] |1 [AA]z2A Bc de :|2 [A2A2] GA Bc de | 
|: "F"[fc][fc] [fc][fc] fa gf | "C"ec cz [ec]z Bc | "G"[dD]z dd dd ed | "Am"cB Az [A4E4] | 
"F"[fc][fc] [fc][fc] fa gf | "C"ed [ec]z B2 c2 |1 [gd]"G"[gd] [gd][gd] [gd][gd] [gd][gd] | 
[gd][gd] [gd][gd] z[gd] [g2d2] :|2 d2 "G"gd eg de | gd eg ed BA | "E7"de ^gd eg de | 
^gd eg ed cB | {G}"Am"A2 AA Ac ec | "G"dB BB Bz cd | "F"cA AA Az Bc | "G"BG GG Gz EG | 
"Am"{G}A2 AA Ac ec | "G"dB BB Bz Bd | "F"cB Ac "C"BA GE | "D"[dA]z [dA][dA] [dA]z [dA][dA] | 
[dA]z [dA][dA] [dA]z AB | (3B"F"cB AG "G"ED C2 | "Am"[E8A,8] | 


